source/img/sprite/vk.svg

<svg width="22" height="22" viewBox="0 0 22 22" fill="none" xmlns="http://www.w3.org/2000/svg">
<path d="M21.8039 15.7032C21.7448 15.6086 21.379 14.8488 19.6189 13.2871C17.7762 11.6518 18.0238 11.9173 20.2432 9.0897C21.5949 7.36763 22.1353 6.31598 21.9662 5.86641C21.8053 5.43786 20.8111 5.55091 20.8111 5.55091L17.5053 5.56932C17.5053 5.56932 17.2606 5.53777 17.0777 5.64162C16.9003 5.74415 16.7862 5.98077 16.7862 5.98077C16.7862 5.98077 16.2623 7.31373 15.5637 8.44688C14.091 10.8381 13.501 10.9643 13.2604 10.8157C12.7007 10.47 12.841 9.42491 12.841 8.6835C12.841 6.36594 13.2082 5.39974 12.1246 5.14997C11.7643 5.06715 11.5003 5.01194 10.5803 5.00274C9.4005 4.99091 8.4008 5.00668 7.83563 5.27091C7.45885 5.44706 7.16871 5.84011 7.3461 5.86246C7.56474 5.89007 8.05977 5.98997 8.32242 6.33176C8.66207 6.77214 8.64969 7.76331 8.64969 7.76331C8.64969 7.76331 8.84496 10.491 8.19453 10.8302C7.74763 11.0629 7.13571 10.5883 5.82248 8.41796C5.15006 7.30716 4.64127 6.07805 4.64127 6.07805C4.64127 6.07805 4.54364 5.84932 4.369 5.72706C4.15724 5.57852 3.86022 5.53119 3.86022 5.53119L0.716735 5.5496C0.716735 5.5496 0.245075 5.56274 0.0718122 5.75861C-0.0821991 5.93345 0.0594363 6.29364 0.0594363 6.29364C0.0594363 6.29364 2.52087 11.7977 5.30682 14.5727C7.86313 17.1164 10.7646 16.9494 10.7646 16.9494H12.0792C12.0792 16.9494 12.4766 16.9074 12.6787 16.6984C12.8658 16.5064 12.8589 16.1463 12.8589 16.1463C12.8589 16.1463 12.8327 14.4597 13.6523 14.2112C14.4595 13.9667 15.4963 15.8413 16.595 16.563C17.4256 17.1085 18.0568 16.9889 18.0568 16.9889L20.9953 16.9494C20.9953 16.9494 22.5327 16.8587 21.8039 15.7032Z" fill="#316DC2"/>
</svg>

<svg viewBox="0 0 22 22" fill="none" xmlns="http://www.w3.org/2000/svg"><path d="M21.8 15.7c-.06-.1-.42-.85-2.18-2.41-1.84-1.64-1.6-1.37.62-4.2 1.35-1.72 1.9-2.77 1.73-3.22-.16-.43-1.16-.32-1.16-.32l-3.3.02s-.25-.03-.43.07a.9.9 0 0 0-.3.34s-.52 1.33-1.22 2.47c-1.47 2.39-2.06 2.51-2.3 2.37-.56-.35-.42-1.4-.42-2.14 0-2.31.37-3.28-.72-3.53a5.92 5.92 0 0 0-1.54-.15c-1.18 0-2.18 0-2.74.27-.38.18-.67.57-.5.6.22.02.72.12.98.46.34.44.33 1.43.33 1.43s.2 2.73-.46 3.07c-.44.23-1.05-.24-2.37-2.41-.67-1.11-1.18-2.34-1.18-2.34s-.1-.23-.27-.35c-.21-.15-.51-.2-.51-.2l-3.14.02s-.47.01-.65.2c-.15.18-.01.54-.01.54s2.46 5.5 5.25 8.28c2.55 2.55 5.45 2.38 5.45 2.38h1.32s.4-.04.6-.25c.19-.2.18-.55.18-.55s-.03-1.69.8-1.94c.8-.24 1.84 1.63 2.93 2.35.84.55 1.47.43 1.47.43l2.94-.04s1.53-.1.8-1.25Z" fill="#316DC2"/></svg>
